src/blocks/sprite-svg/svg/icon-twitter.svg

<svg width="25" height="25" viewBox="0 0 25 25" fill="none" xmlns="http://www.w3.org/2000/svg">
<g clip-path="url(#clip0)">
<path d="M25 4.74844C24.0703 5.15625 23.0797 5.42656 22.0469 5.55781C23.1094 4.92344 23.9203 3.92656 24.3016 2.725C23.3109 3.31562 22.2172 3.73281 21.0516 3.96563C20.1109 2.96406 18.7703 2.34375 17.3078 2.34375C14.4703 2.34375 12.1859 4.64688 12.1859 7.47031C12.1859 7.87656 12.2203 8.26719 12.3047 8.63906C8.04375 8.43125 4.27344 6.38906 1.74062 3.27813C1.29844 4.04531 1.03906 4.92344 1.03906 5.86875C1.03906 7.64375 1.95312 9.21719 3.31562 10.1281C2.49219 10.1125 1.68437 9.87344 1 9.49688C1 9.5125 1 9.53281 1 9.55312C1 12.0437 2.77656 14.1125 5.10625 14.5891C4.68906 14.7031 4.23437 14.7578 3.7625 14.7578C3.43437 14.7578 3.10312 14.7391 2.79219 14.6703C3.45625 16.7 5.34063 18.1922 7.58125 18.2406C5.8375 19.6047 3.62344 20.4266 1.22656 20.4266C0.80625 20.4266 0.403125 20.4078 0 20.3562C2.27031 21.8203 4.96094 22.6562 7.8625 22.6562C17.2937 22.6562 22.45 14.8438 22.45 8.07187C22.45 7.84531 22.4422 7.62656 22.4312 7.40938C23.4484 6.6875 24.3031 5.78594 25 4.74844Z"/>
</g>
<defs>
<clipPath id="clip0">
<rect width="25" height="25" fill="white"/>
</clipPath>
</defs>
</svg>

<svg width="25" height="25" viewBox="0 0 25 25" fill="none" xmlns="http://www.w3.org/2000/svg"><g clip-path="url(#clip0)"><path d="M25 4.748c-.93.408-1.92.679-2.953.81a5.097 5.097 0 002.255-2.833 10.246 10.246 0 01-3.25 1.24 5.124 5.124 0 00-8.866 3.505c0 .407.034.797.119 1.17C8.044 8.43 4.273 6.39 1.74 3.277a5.16 5.16 0 00-.702 2.59 5.13 5.13 0 002.277 4.26A5.061 5.061 0 011 9.497v.056a5.15 5.15 0 004.106 5.036 5.118 5.118 0 01-1.343.169c-.329 0-.66-.019-.97-.088.663 2.03 2.548 3.522 4.788 3.57a10.298 10.298 0 01-6.354 2.187c-.42 0-.824-.02-1.227-.07 2.27 1.463 4.96 2.3 7.862 2.3 9.432 0 14.588-7.813 14.588-14.585 0-.227-.008-.445-.019-.663A10.225 10.225 0 0025 4.75z"/></g><defs><clipPath id="clip0"><path d="M0 0h25v25H0z"/></clipPath></defs></svg>
